X: 4110
M: C|
L: 1/8
K: G
ud |\
a |\
(bg)(fg) (eg)(dg) |
(cg)(Bg) aAAd |\
[1 (bg)(fg) (eg)dg | efga bgg :|\
[2 BGcA dBge | dBcA BGG |]


